src/pages/guidelines/pictograms/images/16_Containers_1-mobile.svg

<?xml version="1.0" encoding="UTF-8"?>
<svg width="288px" height="288px" viewBox="0 0 288 288" version="1.1" xmlns="http://www.w3.org/2000/svg" xmlns:xlink="http://www.w3.org/1999/xlink">
    <!-- Generator: Sketch 52.6 (67491) - http://www.bohemiancoding.com/sketch -->
    <title>Artboard Copy 65</title>
    <desc>Created with Sketch.</desc>
    <defs>
        <polygon id="path-1" points="0 211 211 211 211 0 0 0"></polygon>
    </defs>
    <g id="Artboard-Copy-65" stroke="none" stroke-width="1" fill="none" fill-rule="evenodd">
        <rect id="Rectangle-3-Copy-80" fill="#FFFFFF" x="0" y="0" width="288" height="288"></rect>
        <path d="M244.322,74.144 C243.841998,74.144 243.422002,74.0820006 243.062,73.958 C242.701998,73.8339994 242.400001,73.6640011 242.156,73.448 C241.911999,73.2319989 241.728001,72.9760015 241.604,72.68 C241.479999,72.3839985 241.418,72.0640017 241.418,71.72 C241.418,71.1439971 241.573998,70.6880017 241.886,70.352 C242.198002,70.0159983 242.605997,69.7800007 243.11,69.644 L243.11,69.548 C242.669998,69.3959992 242.320001,69.1500017 242.06,68.81 C241.799999,68.4699983 241.67,68.0600024 241.67,67.58 C241.67,66.9399968 241.901998,66.4300019 242.366,66.05 C242.830002,65.6699981 243.481996,65.48 244.322,65.48 C245.162004,65.48 245.813998,65.6699981 246.278,66.05 C246.742002,66.4300019 246.974,66.9399968 246.974,67.58 C246.974,68.0600024 246.844001,68.4699983 246.584,68.81 C246.323999,69.1500017 245.974002,69.3959992 245.534,69.548 L245.534,69.644 C246.038003,69.7800007 246.445998,70.0159983 246.758,70.352 C247.070002,70.6880017 247.226,71.1439971 247.226,71.72 C247.226,72.0640017 247.164001,72.3839985 247.04,72.68 C246.915999,72.9760015 246.732001,73.2319989 246.488,73.448 C246.243999,73.6640011 245.942002,73.8339994 245.582,73.958 C245.221998,74.0820006 244.802002,74.144 244.322,74.144 Z M244.322,73.268 C244.906003,73.268 245.357998,73.1380013 245.678,72.878 C245.998002,72.6179987 246.158,72.2480024 246.158,71.768 L246.158,71.516 C246.158,71.0359976 245.998002,70.6660013 245.678,70.406 C245.357998,70.1459987 244.906003,70.016 244.322,70.016 C243.737997,70.016 243.286002,70.1459987 242.966,70.406 C242.645998,70.6660013 242.486,71.0359976 242.486,71.516 L242.486,71.768 C242.486,72.2480024 242.645998,72.6179987 242.966,72.878 C243.286002,73.1380013 243.737997,73.268 244.322,73.268 Z M244.322,69.176 C244.850003,69.176 245.249999,69.0640011 245.522,68.84 C245.794001,68.6159989 245.93,68.2880022 245.93,67.856 L245.93,67.676 C245.93,67.2439978 245.794001,66.9160011 245.522,66.692 C245.249999,66.4679989 244.850003,66.356 244.322,66.356 C243.793997,66.356 243.394001,66.4679989 243.122,66.692 C242.849999,66.9160011 242.714,67.2439978 242.714,67.676 L242.714,67.856 C242.714,68.2880022 242.849999,68.6159989 243.122,68.84 C243.394001,69.0640011 243.793997,69.176 244.322,69.176 Z M254.99,74 L253.778,74 L251.582,70.484 L251.558,70.484 L249.302,74 L248.21,74 L250.97,69.776 L248.282,65.624 L249.494,65.624 L251.594,68.96 L251.618,68.96 L253.766,65.624 L254.918,65.624 L252.23,69.704 L254.99,74 Z" id="8X-Copy" fill="#6F6F6F"></path>
        <path d="M256.178,148 L256.178,147.112 L258.518,147.112 L258.518,140.536 L256.154,141.94 L255.758,141.172 L258.422,139.624 L259.526,139.624 L259.526,147.112 L261.686,147.112 L261.686,148 L256.178,148 Z M268.718,148 L263.222,148 L263.222,146.968 L265.958,144.448 C266.350002,144.087998 266.677999,143.706002 266.942,143.302 C267.206001,142.897998 267.338,142.492002 267.338,142.084 L267.338,141.94 C267.338,141.475998 267.210001,141.100001 266.954,140.812 C266.697999,140.523999 266.310003,140.38 265.79,140.38 C265.533999,140.38 265.310001,140.416 265.118,140.488 C264.925999,140.56 264.760001,140.659999 264.62,140.788 C264.479999,140.916001 264.364,141.065999 264.272,141.238 C264.18,141.410001 264.106,141.595999 264.05,141.796 L263.15,141.448 C263.23,141.199999 263.339999,140.958001 263.48,140.722 C263.620001,140.485999 263.795999,140.276001 264.008,140.092 C264.220001,139.907999 264.475999,139.760001 264.776,139.648 C265.076002,139.535999 265.429998,139.48 265.838,139.48 C266.246002,139.48 266.609998,139.539999 266.93,139.66 C267.250002,139.780001 267.517999,139.947999 267.734,140.164 C267.950001,140.380001 268.115999,140.635999 268.232,140.932 C268.348001,141.228001 268.406,141.555998 268.406,141.916 C268.406,142.244002 268.36,142.547999 268.268,142.828 C268.176,143.108001 268.050001,143.373999 267.89,143.626 C267.729999,143.878001 267.536001,144.123999 267.308,144.364 C267.079999,144.604001 266.834001,144.843999 266.57,145.084 L264.314,147.112 L268.718,147.112 L268.718,148 Z M276.59,148 L275.378,148 L273.182,144.484 L273.158,144.484 L270.902,148 L269.81,148 L272.57,143.776 L269.882,139.624 L271.094,139.624 L273.194,142.96 L273.218,142.96 L275.366,139.624 L276.518,139.624 L273.83,143.704 L276.59,148 Z" id="12X-Copy" fill="#6F6F6F"></path>
        <g id="Group-40" transform="translate(39.000000, 39.000000)">
            <path d="M45.3931751,165.606825 L165.606825,165.606825 L165.606825,45.3931751 L45.3931751,45.3931751 L45.3931751,165.606825 Z M49.1498516,161.850148 L161.850148,161.850148 L161.850148,49.1498516 L49.1498516,49.1498516 L49.1498516,161.850148 Z" id="Fill-1" fill="#DBDBDB"></path>
            <g id="Group-39">
                <path d="M97.9683018,58.1232997 C73.5868448,59.9646973 54.2362039,80.5825905 54.2362039,105.470573 C54.2362039,131.660869 75.5453255,152.964982 101.736248,152.964982 C114.007432,152.964982 125.462791,148.371819 134.319156,139.963125 C107.894067,138.546858 86.8322602,116.600979 86.8322602,89.8315282 C86.8322602,78.1138279 90.7648745,66.9721513 97.9683018,58.1232997 M101.736248,155.672294 C74.054551,155.672294 51.532649,133.150392 51.532649,105.470573 C51.532649,78.0624866 73.7408685,55.5518546 101.03688,55.287635 C101.534014,55.1811958 102.068088,55.5994392 102.285975,56.0946944 C102.504489,56.5899496 102.40932,57.1659733 102.040539,57.5623027 C93.9768329,66.2496172 89.5358151,77.7099852 89.5358151,89.8315282 C89.5358151,116.021825 110.844937,137.329068 137.035234,137.329068 C137.573064,137.329068 138.295599,137.637116 138.510355,138.132371 C138.72699,138.623869 138.864109,139.185493 138.497207,139.581822 C129.004711,149.806243 115.605272,155.672294 101.736248,155.672294" id="Fill-2" fill="#000000"></path>
                <path d="M143.066766,66.579516 L136.90519,66.579516 L136.90519,60.4198187 C136.90519,59.6716139 136.299739,59.0661629 135.553412,59.0661629 C134.807086,59.0661629 134.201635,59.6716139 134.201635,60.4198187 L134.201635,66.579516 L128.040059,66.579516 C127.293733,66.579516 126.688282,67.1849671 126.688282,67.9331718 C126.688282,68.6813766 127.293733,69.2868276 128.040059,69.2868276 L134.201635,69.2868276 L134.201635,75.4465249 C134.201635,76.1947297 134.807086,76.8001807 135.553412,76.8001807 C136.299739,76.8001807 136.90519,76.1947297 136.90519,75.4465249 L136.90519,69.2868276 L143.066766,69.2868276 C143.813092,69.2868276 144.418543,68.6813766 144.418543,67.9331718 C144.418543,67.1849671 143.813092,66.579516 143.066766,66.579516" id="Fill-4" fill="#000000"></path>
                <path d="M120.526706,81.6062223 L114.365131,81.6062223 L114.365131,75.4465249 C114.365131,74.6983202 113.75968,74.0928691 113.013353,74.0928691 C112.267027,74.0928691 111.661576,74.6983202 111.661576,75.4465249 L111.661576,81.6062223 L105.5,81.6062223 C104.753674,81.6062223 104.148223,82.2116733 104.148223,82.959878 C104.148223,83.7080828 104.753674,84.3135338 105.5,84.3135338 L111.661576,84.3135338 L111.661576,90.4732312 C111.661576,91.2214359 112.267027,91.8268869 113.013353,91.8268869 C113.75968,91.8268869 114.365131,91.2214359 114.365131,90.4732312 L114.365131,84.3135338 L120.526706,84.3135338 C121.273033,84.3135338 121.878484,83.7080828 121.878484,82.959878 C121.878484,82.2116733 121.273033,81.6062223 120.526706,81.6062223" id="Fill-6" fill="#000000"></path>
                <path d="M158.093472,115.416311 L151.931896,115.416311 L151.931896,109.256614 C151.931896,108.508409 151.326445,107.902958 150.580119,107.902958 C149.833792,107.902958 149.228341,108.508409 149.228341,109.256614 L149.228341,115.416311 L143.066766,115.416311 C142.320439,115.416311 141.714988,116.021762 141.714988,116.769967 C141.714988,117.518172 142.320439,118.123623 143.066766,118.123623 L149.228341,118.123623 L149.228341,124.28332 C149.228341,125.031525 149.833792,125.636976 150.580119,125.636976 C151.326445,125.636976 151.931896,125.031525 151.931896,124.28332 L151.931896,118.123623 L158.093472,118.123623 C158.839798,118.123623 159.445249,117.518172 159.445249,116.769967 C159.445249,116.021762 158.839798,115.416311 158.093472,115.416311" id="Fill-8" fill="#000000"></path>
                <mask id="mask-2" fill="white">
                    <use xlink:href="#path-1"></use>
                </mask>
                <g id="Clip-11"></g>
                <polygon id="Fill-10" fill="#F975A5" mask="url(#mask-2)" points="161.850148 49.1498516 165.606825 49.1498516 165.606825 45.3931751 161.850148 45.3931751"></polygon>
                <polygon id="Fill-12" fill="#FFD0E2" mask="url(#mask-2)" points="165.606825 52.9065282 195.660237 52.9065282 195.660237 45.3931751 165.606825 45.3931751"></polygon>
                <polygon id="Fill-13" fill="#F975A5" mask="url(#mask-2)" points="161.850148 105.5 165.606825 105.5 165.606825 101.743323 161.850148 101.743323"></polygon>
                <polygon id="Fill-14" fill="#FFD0E2" mask="url(#mask-2)" points="165.606825 109.256677 210.686944 109.256677 210.686944 101.743323 165.606825 101.743323"></polygon>
                <path d="M15.652819,195.347181 L45.0801187,195.347181 L45.0801187,165.919881 L15.652819,165.919881 L15.652819,195.347181 Z M15.652819,165.293769 L45.0801187,165.293769 L45.0801187,45.7062315 L15.652819,45.7062315 L15.652819,165.293769 Z M15.652819,45.0801187 L45.0801187,45.0801187 L45.0801187,15.652819 L15.652819,15.652819 L15.652819,45.0801187 Z M45.7062315,195.347181 L165.293769,195.347181 L165.293769,165.919881 L45.7062315,165.919881 L45.7062315,195.347181 Z M45.7062315,165.293769 L165.293769,165.293769 L165.293769,45.7062315 L45.7062315,45.7062315 L45.7062315,165.293769 Z M45.7062315,45.0801187 L165.293769,45.0801187 L165.293769,15.652819 L45.7062315,15.652819 L45.7062315,45.0801187 Z M165.919881,45.0801187 L195.347181,45.0801187 L195.347181,15.652819 L165.919881,15.652819 L165.919881,45.0801187 Z M188.459941,165.293769 L195.347181,165.293769 L195.347181,45.7062315 L188.459941,45.7062315 L188.459941,165.293769 Z M173.433234,165.293769 L180.320475,165.293769 L180.320475,45.7062315 L173.433234,45.7062315 L173.433234,165.293769 Z M180.946588,165.293769 L187.833828,165.293769 L187.833828,45.7062315 L180.946588,45.7062315 L180.946588,165.293769 Z M165.919881,165.293769 L172.807122,165.293769 L172.807122,45.7062315 L165.919881,45.7062315 L165.919881,165.293769 Z M165.919881,195.347181 L195.347181,195.347181 L195.347181,165.919881 L165.919881,165.919881 L165.919881,195.347181 Z M15.0267062,195.973294 L195.973294,195.973294 L195.973294,15.0267062 L15.0267062,15.0267062 L15.0267062,195.973294 Z" id="Fill-15" fill="#95C0FF" mask="url(#mask-2)"></path>
                <polygon id="Fill-16" fill="#95C0FF" mask="url(#mask-2)" points="202.860534 144.318991 203.486647 144.318991 203.486647 66.6810089 202.860534 66.6810089"></polygon>
                <path d="M105.5,0.62611276 C47.6722255,0.62611276 0.62611276,47.6728516 0.62611276,105.5 C0.62611276,163.327148 47.6722255,210.373887 105.5,210.373887 C163.327774,210.373887 210.373887,163.327148 210.373887,105.5 C210.373887,47.6728516 163.327774,0.62611276 105.5,0.62611276 M105.5,211 C47.3272374,211 0,163.672763 0,105.5 C0,47.3272374 47.3272374,0 105.5,0 C163.672763,0 211,47.3272374 211,105.5 C211,163.672763 163.672763,211 105.5,211" id="Fill-17" fill="#006AFE" mask="url(#mask-2)"></path>
                <polygon id="Fill-18" fill="#0062FF" mask="url(#mask-2)" points="165.606825 52.9065282 169.363501 52.9065282 169.363501 49.1498516 165.606825 49.1498516"></polygon>
                <polygon id="Fill-19" fill="#0062FF" mask="url(#mask-2)" points="165.606825 109.256677 169.363501 109.256677 169.363501 105.5 165.606825 105.5"></polygon>
                <polygon id="Fill-20" fill="#0062FF" mask="url(#mask-2)" points="169.363501 49.3495816 173.120178 49.3495816 173.120178 45.592905 169.363501 45.592905"></polygon>
                <polygon id="Fill-21" fill="#0062FF" mask="url(#mask-2)" points="169.363501 105.5 173.120178 105.5 173.120178 101.743323 169.363501 101.743323"></polygon>
                <polygon id="Fill-22" fill="#0062FF" mask="url(#mask-2)" points="173.120178 52.9065282 176.876855 52.9065282 176.876855 49.1498516 173.120178 49.1498516"></polygon>
                <polygon id="Fill-23" fill="#0062FF" mask="url(#mask-2)" points="173.120178 109.256677 176.876855 109.256677 176.876855 105.5 173.120178 105.5"></polygon>
                <polygon id="Fill-24" fill="#0062FF" mask="url(#mask-2)" points="176.876855 49.3495816 180.633531 49.3495816 180.633531 45.592905 176.876855 45.592905"></polygon>
                <polygon id="Fill-25" fill="#0062FF" mask="url(#mask-2)" points="176.876855 105.5 180.633531 105.5 180.633531 101.743323 176.876855 101.743323"></polygon>
                <polygon id="Fill-26" fill="#0062FF" mask="url(#mask-2)" points="180.633531 52.9065282 184.390208 52.9065282 184.390208 49.1498516 180.633531 49.1498516"></polygon>
                <polygon id="Fill-27" fill="#0062FF" mask="url(#mask-2)" points="180.633531 109.256677 184.390208 109.256677 184.390208 105.5 180.633531 105.5"></polygon>
                <polygon id="Fill-28" fill="#0062FF" mask="url(#mask-2)" points="184.390208 49.3495816 188.146884 49.3495816 188.146884 45.592905 184.390208 45.592905"></polygon>
                <polygon id="Fill-29" fill="#0062FF" mask="url(#mask-2)" points="184.390208 105.5 188.146884 105.5 188.146884 101.743323 184.390208 101.743323"></polygon>
                <polygon id="Fill-30" fill="#0062FF" mask="url(#mask-2)" points="188.146884 52.9065282 191.903561 52.9065282 191.903561 49.1498516 188.146884 49.1498516"></polygon>
                <polygon id="Fill-31" fill="#0062FF" mask="url(#mask-2)" points="188.146884 109.256677 191.903561 109.256677 191.903561 105.5 188.146884 105.5"></polygon>
                <polygon id="Fill-32" fill="#0062FF" mask="url(#mask-2)" points="191.903561 49.3495816 195.660237 49.3495816 195.660237 45.592905 191.903561 45.592905"></polygon>
                <polygon id="Fill-33" fill="#0062FF" mask="url(#mask-2)" points="191.903561 105.5 195.660237 105.5 195.660237 101.743323 191.903561 101.743323"></polygon>
                <polygon id="Fill-34" fill="#0062FF" mask="url(#mask-2)" points="195.660237 109.256677 199.416914 109.256677 199.416914 105.5 195.660237 105.5"></polygon>
                <polygon id="Fill-35" fill="#0062FF" mask="url(#mask-2)" points="199.416914 105.5 203.173591 105.5 203.173591 101.743323 199.416914 101.743323"></polygon>
                <polygon id="Fill-36" fill="#0062FF" mask="url(#mask-2)" points="203.173591 109.256677 206.930267 109.256677 206.930267 105.5 203.173591 105.5"></polygon>
                <polygon id="Fill-37" fill="#0062FF" mask="url(#mask-2)" points="206.930267 105.5 210.686944 105.5 210.686944 101.743323 206.930267 101.743323"></polygon>
                <polygon id="Fill-38" fill="#006AFE" mask="url(#mask-2)" points="108.630564 105.0708 105.813056 105.0708 105.813056 102.253292 105.186944 102.253292 105.186944 105.0708 102.369436 105.0708 102.369436 105.696912 105.186944 105.696912 105.186944 108.51442 105.813056 108.51442 105.813056 105.696912 108.630564 105.696912"></polygon>
            </g>
        </g>
    </g>
</svg>

<svg xmlns="http://www.w3.org/2000/svg" xmlns:xlink="http://www.w3.org/1999/xlink" viewBox="0 0 288 288"><defs><path id="a" d="M0 211h211V0H0z"/></defs><g fill="none" fill-rule="evenodd"><path fill="#FFF" d="M0 0h288v288H0z"/><path d="M244.322 74.144c-.48 0-.9-.062-1.26-.186a2.65 2.65 0 01-.906-.51 2.096 2.096 0 01-.552-.768 2.46 2.46 0 01-.186-.96c0-.576.156-1.032.468-1.368.312-.336.72-.572 1.224-.708v-.096a2.18 2.18 0 01-1.05-.738c-.26-.34-.39-.75-.39-1.23 0-.64.232-1.15.696-1.53.464-.38 1.116-.57 1.956-.57.84 0 1.492.19 1.956.57.464.38.696.89.696 1.53 0 .48-.13.89-.39 1.23-.26.34-.61.586-1.05.738v.096c.504.136.912.372 1.224.708.312.336.468.792.468 1.368 0 .344-.062.664-.186.96a2.096 2.096 0 01-.552.768 2.65 2.65 0 01-.906.51 3.87 3.87 0 01-1.26.186zm0-.876c.584 0 1.036-.13 1.356-.39.32-.26.48-.63.48-1.11v-.252c0-.48-.16-.85-.48-1.11-.32-.26-.772-.39-1.356-.39-.584 0-1.036.13-1.356.39-.32.26-.48.63-.48 1.11v.252c0 .48.16.85.48 1.11.32.26.772.39 1.356.39zm0-4.092c.528 0 .928-.112 1.2-.336.272-.224.408-.552.408-.984v-.18c0-.432-.136-.76-.408-.984-.272-.224-.672-.336-1.2-.336-.528 0-.928.112-1.2.336-.272.224-.408.552-.408.984v.18c0 .432.136.76.408.984.272.224.672.336 1.2.336zM254.99 74h-1.212l-2.196-3.516h-.024L249.302 74h-1.092l2.76-4.224-2.688-4.152h1.212l2.1 3.336h.024l2.148-3.336h1.152l-2.688 4.08L254.99 74zm1.188 74v-.888h2.34v-6.576l-2.364 1.404-.396-.768 2.664-1.548h1.104v7.488h2.16V148h-5.508zm12.54 0h-5.496v-1.032l2.736-2.52c.392-.36.72-.742.984-1.146.264-.404.396-.81.396-1.218v-.144c0-.464-.128-.84-.384-1.128-.256-.288-.644-.432-1.164-.432-.256 0-.48.036-.672.108a1.52 1.52 0 00-.498.3c-.14.128-.256.278-.348.45a2.752 2.752 0 00-.222.558l-.9-.348c.08-.248.19-.49.33-.726a2.56 2.56 0 01.528-.63c.212-.184.468-.332.768-.444.3-.112.654-.168 1.062-.168.408 0 .772.06 1.092.18.32.12.588.288.804.504.216.216.382.472.498.768.116.296.174.624.174.984 0 .328-.046.632-.138.912-.092.28-.218.546-.378.798a4.85 4.85 0 01-.582.738c-.228.24-.474.48-.738.72l-2.256 2.028h4.404V148zm7.872 0h-1.212l-2.196-3.516h-.024L270.902 148h-1.092l2.76-4.224-2.688-4.152h1.212l2.1 3.336h.024l2.148-3.336h1.152l-2.688 4.08 2.76 4.296z" fill="#6F6F6F"/><path d="M84.393 204.607h120.214V84.393H84.393v120.214zm3.757-3.757h112.7V88.15H88.15v112.7z" fill="#DBDBDB"/><g transform="translate(39 39)"><path d="M97.968 58.123c-24.381 1.842-43.732 22.46-43.732 47.348 0 26.19 21.31 47.494 47.5 47.494 12.271 0 23.727-4.593 32.583-13.002-26.425-1.416-47.487-23.362-47.487-50.131 0-11.718 3.933-22.86 11.136-31.709m3.768 97.55c-27.681 0-50.203-22.523-50.203-50.202 0-27.409 22.208-49.92 49.504-50.183.497-.107 1.031.311 1.249.807a1.35 1.35 0 01-.245 1.467c-8.064 8.688-12.505 20.148-12.505 32.27 0 26.19 21.309 47.497 47.5 47.497.537 0 1.26.308 1.474.803.217.492.354 1.053-.013 1.45-9.492 10.224-22.892 16.09-36.76 16.09m41.33-89.092h-6.162v-6.16a1.352 1.352 0 10-2.703 0v6.16h-6.162a1.352 1.352 0 000 2.707h6.162v6.16a1.352 1.352 0 102.703 0v-6.16h6.162a1.353 1.353 0 000-2.707" fill="#000"/><path d="M120.527 81.606h-6.162v-6.16a1.352 1.352 0 10-2.703 0v6.16H105.5a1.353 1.353 0 000 2.708h6.162v6.16a1.352 1.352 0 102.703 0v-6.16h6.162c.746 0 1.351-.606 1.351-1.354 0-.748-.605-1.354-1.351-1.354m37.566 33.81h-6.161v-6.16a1.352 1.352 0 10-2.704 0v6.16h-6.161c-.747 0-1.352.606-1.352 1.354 0 .748.605 1.354 1.352 1.354h6.161v6.16a1.352 1.352 0 102.704 0v-6.16h6.161c.747 0 1.352-.606 1.352-1.354 0-.748-.605-1.354-1.352-1.354" fill="#000"/><mask id="b" fill="#fff"><use xlink:href="#a"/></mask><path fill="#F975A5" mask="url(#b)" d="M161.85 49.15h3.757v-3.757h-3.757z"/><path fill="#FFD0E2" mask="url(#b)" d="M165.607 52.907h30.053v-7.514h-30.053z"/><path fill="#F975A5" mask="url(#b)" d="M161.85 105.5h3.757v-3.757h-3.757z"/><path fill="#FFD0E2" mask="url(#b)" d="M165.607 109.257h45.08v-7.514h-45.08z"/><path d="M15.653 195.347H45.08V165.92H15.653v29.427zm0-30.053H45.08V45.706H15.653v119.588zm0-120.214H45.08V15.653H15.653V45.08zm30.053 150.267h119.588V165.92H45.706v29.427zm0-30.053h119.588V45.706H45.706v119.588zm0-120.214h119.588V15.653H45.706V45.08zm120.214 0h29.427V15.653H165.92V45.08zm22.54 120.214h6.887V45.706h-6.887v119.588zm-15.027 0h6.887V45.706h-6.887v119.588zm7.514 0h6.887V45.706h-6.887v119.588zm-15.027 0h6.887V45.706h-6.887v119.588zm0 30.053h29.427V165.92H165.92v29.427zm-150.893.626h180.946V15.027H15.027v180.946zm187.833-51.654h.627V66.681h-.626z" fill="#95C0FF" mask="url(#b)"/><path d="M105.5.626C47.672.626.626 47.673.626 105.5S47.672 210.374 105.5 210.374c57.828 0 104.874-47.047 104.874-104.874S163.328.626 105.5.626m0 210.374C47.327 211 0 163.673 0 105.5S47.327 0 105.5 0 211 47.327 211 105.5 163.673 211 105.5 211" fill="#006AFE" mask="url(#b)"/><path fill="#0062FF" mask="url(#b)" d="M165.607 52.907h3.757V49.15h-3.757zm0 56.35h3.757V105.5h-3.757zm3.757-59.907h3.756v-3.757h-3.756zm0 56.15h3.756v-3.757h-3.756zm3.756-52.593h3.757V49.15h-3.757zm0 56.35h3.757V105.5h-3.757zm3.757-59.907h3.757v-3.757h-3.757zm0 56.15h3.757v-3.757h-3.757z"/><path fill="#0062FF" mask="url(#b)" d="M180.634 52.907h3.756V49.15h-3.756zm0 56.35h3.756V105.5h-3.756zm3.756-59.907h3.757v-3.757h-3.757zm0 56.15h3.757v-3.757h-3.757zm3.757-52.593h3.757V49.15h-3.757zm0 56.35h3.757V105.5h-3.757zm3.757-59.907h3.756v-3.757h-3.756zm0 56.15h3.756v-3.757h-3.756zm3.756 3.757h3.757V105.5h-3.757zm3.757-3.757h3.757v-3.757h-3.757zm3.757 3.757h3.756V105.5h-3.756zm3.756-3.757h3.757v-3.757h-3.757z"/><path fill="#006AFE" mask="url(#b)" d="M108.63 105.07h-2.817v-2.817h-.626v2.818h-2.818v.626h2.818v2.817h.626v-2.817h2.818z"/></g></g></svg>
